bernoullicharts/2014_add_x_0_2_bits.svg

<?xml version="1.0" encoding="utf-8" standalone="no"?>
<!DOCTYPE svg PUBLIC "-//W3C//DTD SVG 1.1//EN"
  "http://www.w3.org/Graphics/SVG/1.1/DTD/svg11.dtd">
<!-- Created with matplotlib (https://matplotlib.org/) -->
<svg height="345.6pt" version="1.1" viewBox="0 0 460.8 345.6" width="460.8pt" xmlns="http://www.w3.org/2000/svg" xmlns:xlink="http://www.w3.org/1999/xlink">
 <defs>
  <style type="text/css">
*{stroke-linecap:butt;stroke-linejoin:round;}
  </style>
 </defs>
 <g id="figure_1">
  <g id="patch_1">
   <path d="M 0 345.6 
L 460.8 345.6 
L 460.8 0 
L 0 0 
z
" style="fill:#ffffff;"/>
  </g>
  <g id="axes_1">
   <g id="patch_2">
    <path d="M 57.6 307.584 
L 414.72 307.584 
L 414.72 41.472 
L 57.6 41.472 
z
" style="fill:#ffffff;"/>
   </g>
   <g id="matplotlib.axis_1">
    <g id="xtick_1">
     <g id="line2d_1">
      <defs>
       <path d="M 0 0 
L 0 3.5 
" id="m9ec6806f3d" style="stroke:#000000;stroke-width:0.8;"/>
      </defs>
      <g>
       <use style="stroke:#000000;stroke-width:0.8;" x="73.784746" xlink:href="#m9ec6806f3d" y="307.584"/>
      </g>
     </g>
     <g id="text_1">
      <text style="font-family:DejaVu Sans;font-size:10px;font-style:normal;font-weight:normal;text-anchor:middle;" transform="rotate(-0, 73.784746, 322.182437)" x="73.784746" y="322.182437">0.0</text>
     </g>
    </g>
    <g id="xtick_2">
     <g id="line2d_2">
      <g>
       <use style="stroke:#000000;stroke-width:0.8;" x="121.765686" xlink:href="#m9ec6806f3d" y="307.584"/>
      </g>
     </g>
     <g id="text_2">
      <text style="font-family:DejaVu Sans;font-size:10px;font-style:normal;font-weight:normal;text-anchor:middle;" transform="rotate(-0, 121.765686, 322.182437)" x="121.765686" y="322.182437">0.1</text>
     </g>
    </g>
    <g id="xtick_3">
     <g id="line2d_3">
      <g>
       <use style="stroke:#000000;stroke-width:0.8;" x="169.746625" xlink:href="#m9ec6806f3d" y="307.584"/>
      </g>
     </g>
     <g id="text_3">
      <text style="font-family:DejaVu Sans;font-size:10px;font-style:normal;font-weight:normal;text-anchor:middle;" transform="rotate(-0, 169.746625, 322.182437)" x="169.746625" y="322.182437">0.2</text>
     </g>
    </g>
    <g id="xtick_4">
     <g id="line2d_4">
      <g>
       <use style="stroke:#000000;stroke-width:0.8;" x="217.727565" xlink:href="#m9ec6806f3d" y="307.584"/>
      </g>
     </g>
     <g id="text_4">
      <text style="font-family:DejaVu Sans;font-size:10px;font-style:normal;font-weight:normal;text-anchor:middle;" transform="rotate(-0, 217.727565, 322.182437)" x="217.727565" y="322.182437">0.3</text>
     </g>
    </g>
    <g id="xtick_5">
     <g id="line2d_5">
      <g>
       <use style="stroke:#000000;stroke-width:0.8;" x="265.708504" xlink:href="#m9ec6806f3d" y="307.584"/>
      </g>
     </g>
     <g id="text_5">
      <text style="font-family:DejaVu Sans;font-size:10px;font-style:normal;font-weight:normal;text-anchor:middle;" transform="rotate(-0, 265.708504, 322.182437)" x="265.708504" y="322.182437">0.4</text>
     </g>
    </g>
    <g id="xtick_6">
     <g id="line2d_6">
      <g>
       <use style="stroke:#000000;stroke-width:0.8;" x="313.689444" xlink:href="#m9ec6806f3d" y="307.584"/>
      </g>
     </g>
     <g id="text_6">
      <text style="font-family:DejaVu Sans;font-size:10px;font-style:normal;font-weight:normal;text-anchor:middle;" transform="rotate(-0, 313.689444, 322.182437)" x="313.689444" y="322.182437">0.5</text>
     </g>
    </g>
    <g id="xtick_7">
     <g id="line2d_7">
      <g>
       <use style="stroke:#000000;stroke-width:0.8;" x="361.670383" xlink:href="#m9ec6806f3d" y="307.584"/>
      </g>
     </g>
     <g id="text_7">
      <text style="font-family:DejaVu Sans;font-size:10px;font-style:normal;font-weight:normal;text-anchor:middle;" transform="rotate(-0, 361.670383, 322.182437)" x="361.670383" y="322.182437">0.6</text>
     </g>
    </g>
    <g id="xtick_8">
     <g id="line2d_8">
      <g>
       <use style="stroke:#000000;stroke-width:0.8;" x="409.651323" xlink:href="#m9ec6806f3d" y="307.584"/>
      </g>
     </g>
     <g id="text_8">
      <text style="font-family:DejaVu Sans;font-size:10px;font-style:normal;font-weight:normal;text-anchor:middle;" transform="rotate(-0, 409.651323, 322.182437)" x="409.651323" y="322.182437">0.7</text>
     </g>
    </g>
    <g id="text_9">
     <text style="font-family:DejaVu Sans;font-size:10px;font-style:normal;font-weight:normal;text-anchor:middle;" transform="rotate(-0, 236.16, 335.860562)" x="236.16" y="335.860562">Probability</text>
    </g>
   </g>
   <g id="matplotlib.axis_2">
    <g id="ytick_1">
     <g id="line2d_9">
      <defs>
       <path d="M 0 0 
L -3.5 0 
" id="mffb67b8252" style="stroke:#000000;stroke-width:0.8;"/>
      </defs>
      <g>
       <use style="stroke:#000000;stroke-width:0.8;" x="57.6" xlink:href="#mffb67b8252" y="287.951471"/>
      </g>
     </g>
     <g id="text_10">
      <text style="font-family:DejaVu Sans;font-size:10px;font-style:normal;font-weight:normal;text-anchor:end;" transform="rotate(-0, 50.6, 291.75069)" x="50.6" y="291.75069">50</text>
     </g>
    </g>
    <g id="ytick_2">
     <g id="line2d_10">
      <g>
       <use style="stroke:#000000;stroke-width:0.8;" x="57.6" xlink:href="#mffb67b8252" y="250.094686"/>
      </g>
     </g>
     <g id="text_11">
      <text style="font-family:DejaVu Sans;font-size:10px;font-style:normal;font-weight:normal;text-anchor:end;" transform="rotate(-0, 50.6, 253.893905)" x="50.6" y="253.893905">100</text>
     </g>
    </g>
    <g id="ytick_3">
     <g id="line2d_11">
      <g>
       <use style="stroke:#000000;stroke-width:0.8;" x="57.6" xlink:href="#mffb67b8252" y="212.237901"/>
      </g>
     </g>
     <g id="text_12">
      <text style="font-family:DejaVu Sans;font-size:10px;font-style:normal;font-weight:normal;text-anchor:end;" transform="rotate(-0, 50.6, 216.03712)" x="50.6" y="216.03712">150</text>
     </g>
    </g>
    <g id="ytick_4">
     <g id="line2d_12">
      <g>
       <use style="stroke:#000000;stroke-width:0.8;" x="57.6" xlink:href="#mffb67b8252" y="174.381116"/>
      </g>
     </g>
     <g id="text_13">
      <text style="font-family:DejaVu Sans;font-size:10px;font-style:normal;font-weight:normal;text-anchor:end;" transform="rotate(-0, 50.6, 178.180334)" x="50.6" y="178.180334">200</text>
     </g>
    </g>
    <g id="ytick_5">
     <g id="line2d_13">
      <g>
       <use style="stroke:#000000;stroke-width:0.8;" x="57.6" xlink:href="#mffb67b8252" y="136.52433"/>
      </g>
     </g>
     <g id="text_14">
      <text style="font-family:DejaVu Sans;font-size:10px;font-style:normal;font-weight:normal;text-anchor:end;" transform="rotate(-0, 50.6, 140.323549)" x="50.6" y="140.323549">250</text>
     </g>
    </g>
    <g id="ytick_6">
     <g id="line2d_14">
      <g>
       <use style="stroke:#000000;stroke-width:0.8;" x="57.6" xlink:href="#mffb67b8252" y="98.667545"/>
      </g>
     </g>
     <g id="text_15">
      <text style="font-family:DejaVu Sans;font-size:10px;font-style:normal;font-weight:normal;text-anchor:end;" transform="rotate(-0, 50.6, 102.466764)" x="50.6" y="102.466764">300</text>
     </g>
    </g>
    <g id="ytick_7">
     <g id="line2d_15">
      <g>
       <use style="stroke:#000000;stroke-width:0.8;" x="57.6" xlink:href="#mffb67b8252" y="60.81076"/>
      </g>
     </g>
     <g id="text_16">
      <text style="font-family:DejaVu Sans;font-size:10px;font-style:normal;font-weight:normal;text-anchor:end;" transform="rotate(-0, 50.6, 64.609979)" x="50.6" y="64.609979">350</text>
     </g>
    </g>
    <g id="text_17">
     <text style="font-family:DejaVu Sans;font-size:10px;font-style:normal;font-weight:normal;text-anchor:middle;" transform="rotate(-90, 25.432812, 174.528)" x="25.432812" y="174.528">Average Bits Consumed Per Call</text>
    </g>
   </g>
   <g id="line2d_16">
    <path clip-path="url(#p42983efaa4)" d="M 73.832727 290.83313 
L 78.678318 290.387934 
L 83.523908 289.70954 
L 88.369498 279.052098 
L 93.215088 295.488 
L 98.060678 289.268887 
L 102.906269 291.687179 
L 107.751859 293.262021 
L 112.597449 293.054566 
L 117.443039 291.263183 
L 122.28863 292.586656 
L 127.13422 287.715245 
L 131.97981 293.096965 
L 136.8254 292.494285 
L 141.670991 292.966738 
L 146.516581 288.903948 
L 151.362171 280.116631 
L 156.207761 293.134822 
L 161.053351 284.924443 
L 165.898942 286.655255 
L 170.744532 286.102546 
L 175.590122 287.966614 
L 180.435712 284.149136 
L 185.281303 286.702197 
L 190.126893 284.63976 
L 194.972483 288.395153 
L 199.818073 281.706616 
L 204.663664 279.386752 
L 209.509254 287.800044 
L 214.354844 290.878558 
L 219.200434 286.832425 
L 224.046024 288.251297 
L 228.891615 283.210287 
L 233.737205 275.776729 
L 238.582795 280.994908 
L 243.428385 282.216925 
L 248.273976 277.704397 
L 253.119566 281.029737 
L 257.965156 279.180811 
L 262.810746 276.780691 
L 267.656336 280.330143 
L 272.501927 277.80131 
L 277.347517 269.21842 
L 282.193107 279.995489 
M 291.884288 271.501941 
L 296.729878 268.891337 
L 301.575468 270.493436 
L 306.421058 271.882023 
L 311.266649 272.976841 
L 316.112239 275.682844 
L 320.957829 249.428407 
L 325.803419 252.241923 
L 330.649009 274.466884 
L 335.4946 265.034488 
L 340.34019 254.33616 
L 345.18578 268.025174 
L 350.03137 217.774077 
L 354.876961 238.934506 
M 364.568141 234.630946 
M 374.259322 236.796355 
M 398.487273 211.459565 
" style="fill:none;stroke:#1f77b4;stroke-linecap:square;stroke-width:1.5;"/>
   </g>
   <g id="line2d_17">
    <path clip-path="url(#p42983efaa4)" d="M 73.832727 263.46116 
L 78.678318 264.221324 
L 83.523908 263.733729 
L 88.369498 261.513807 
L 93.215088 262.967507 
L 98.060678 253.560853 
L 102.906269 257.894698 
L 107.751859 247.842964 
L 112.597449 248.949897 
L 117.443039 252.034468 
L 122.28863 257.19359 
L 127.13422 249.622233 
L 131.97981 254.139305 
L 136.8254 252.876403 
L 141.670991 252.043553 
L 146.516581 254.873727 
L 151.362171 241.558738 
L 156.207761 246.372607 
L 161.053351 245.504929 
L 165.898942 245.512501 
L 170.744532 238.331826 
L 175.590122 238.462053 
L 180.435712 244.063343 
L 185.281303 242.019077 
L 190.126893 233.068218 
L 194.972483 229.758021 
L 199.818073 238.658908 
L 204.663664 230.309216 
L 209.509254 229.644451 
L 214.354844 234.12518 
L 219.200434 214.787934 
L 224.046024 227.859125 
L 228.891615 228.258892 
L 233.737205 230.328901 
L 238.582795 228.037809 
L 243.428385 220.24234 
L 248.273976 213.565917 
L 253.119566 208.297767 
L 257.965156 208.570336 
L 262.810746 207.581516 
L 267.656336 204.374289 
L 272.501927 197.906836 
L 277.347517 205.656877 
L 282.193107 201.394203 
M 291.884288 177.274888 
L 296.729878 175.91053 
L 301.575468 166.620475 
L 306.421058 158.750806 
L 311.266649 157.556046 
L 316.112239 142.788871 
L 320.957829 158.511551 
M 330.649009 136.927127 
L 335.4946 129.1786 
M 345.18578 127.889955 
M 374.259322 69.504192 
" style="fill:none;stroke:#ff7f0e;stroke-linecap:square;stroke-width:1.5;"/>
   </g>
   <g id="line2d_18">
    <path clip-path="url(#p42983efaa4)" d="M 238.582795 53.568 
L 243.428385 80.346376 
L 248.273976 103.351187 
M 262.810746 139.861785 
M 272.501927 166.968757 
L 277.347517 151.305134 
L 282.193107 179.410011 
M 291.884288 195.329546 
M 301.575468 205.566021 
" style="fill:none;stroke:#2ca02c;stroke-linecap:square;stroke-width:1.5;"/>
   </g>
   <g id="patch_3">
    <path d="M 57.6 307.584 
L 57.6 41.472 
" style="fill:none;stroke:#000000;stroke-linecap:square;stroke-linejoin:miter;stroke-width:0.8;"/>
   </g>
   <g id="patch_4">
    <path d="M 414.72 307.584 
L 414.72 41.472 
" style="fill:none;stroke:#000000;stroke-linecap:square;stroke-linejoin:miter;stroke-width:0.8;"/>
   </g>
   <g id="patch_5">
    <path d="M 57.6 307.584 
L 414.72 307.584 
" style="fill:none;stroke:#000000;stroke-linecap:square;stroke-linejoin:miter;stroke-width:0.8;"/>
   </g>
   <g id="patch_6">
    <path d="M 57.6 41.472 
L 414.72 41.472 
" style="fill:none;stroke:#000000;stroke-linecap:square;stroke-linejoin:miter;stroke-width:0.8;"/>
   </g>
   <g id="text_18">
    <text style="font-family:DejaVu Sans;font-size:12px;font-style:normal;font-weight:normal;text-anchor:middle;" transform="rotate(-0, 236.16, 35.472)" x="236.16" y="35.472">Avg. Bits Consumed by 2014 Add. x+0.2 Algorithm</text>
   </g>
   <g id="legend_1">
    <g id="patch_7">
     <path d="M 64.6 93.506375 
L 181.148438 93.506375 
Q 183.148438 93.506375 183.148438 91.506375 
L 183.148438 48.472 
Q 183.148438 46.472 181.148438 46.472 
L 64.6 46.472 
Q 62.6 46.472 62.6 48.472 
L 62.6 91.506375 
Q 62.6 93.506375 64.6 93.506375 
z
" style="fill:#ffffff;opacity:0.8;stroke:#cccccc;stroke-linejoin:miter;"/>
    </g>
    <g id="line2d_19">
     <path d="M 66.6 54.570438 
L 86.6 54.570438 
" style="fill:none;stroke:#1f77b4;stroke-linecap:square;stroke-width:1.5;"/>
    </g>
    <g id="line2d_20"/>
    <g id="text_19">
     <text style="font-family:DejaVu Sans;font-size:10px;font-style:normal;font-weight:normal;text-anchor:start;" transform="rotate(-0, 94.6, 58.070438)" x="94.6" y="58.070438">2014 Add. x+0.2</text>
    </g>
    <g id="line2d_21">
     <path d="M 66.6 69.248563 
L 86.6 69.248563 
" style="fill:none;stroke:#ff7f0e;stroke-linecap:square;stroke-width:1.5;"/>
    </g>
    <g id="line2d_22"/>
    <g id="text_20">
     <text style="font-family:DejaVu Sans;font-size:10px;font-style:normal;font-weight:normal;text-anchor:start;" transform="rotate(-0, 94.6, 72.748563)" x="94.6" y="72.748563">2016 Add. x+0.2</text>
    </g>
    <g id="line2d_23">
     <path d="M 66.6 83.926688 
L 86.6 83.926688 
" style="fill:none;stroke:#2ca02c;stroke-linecap:square;stroke-width:1.5;"/>
    </g>
    <g id="line2d_24"/>
    <g id="text_21">
     <text style="font-family:DejaVu Sans;font-size:10px;font-style:normal;font-weight:normal;text-anchor:start;" transform="rotate(-0, 94.6, 87.426688)" x="94.6" y="87.426688">2019 Add. x+0.2</text>
    </g>
   </g>
  </g>
 </g>
 <defs>
  <clipPath id="p42983efaa4">
   <rect height="266.112" width="357.12" x="57.6" y="41.472"/>
  </clipPath>
 </defs>
</svg>

<svg height="460.8" viewBox="0 0 460.8 345.6" width="614.4" xmlns="http://www.w3.org/2000/svg" xmlns:xlink="http://www.w3.org/1999/xlink"><defs><style>*{stroke-linecap:butt;stroke-linejoin:round}</style></defs><g id="figure_1"><path d="M0 345.6h460.8V0H0z" fill="#fff" id="patch_1"/><g id="axes_1"><path d="M57.6 307.584h357.12V41.472H57.6z" fill="#fff" id="patch_2"/><g id="matplotlib.axis_1"><g id="xtick_1"><g id="line2d_1"><defs><path d="M0 0v3.5" id="m9ec6806f3d" stroke="#000" stroke-width=".8"/></defs><use x="73.785" xlink:href="#m9ec6806f3d" y="307.584" stroke="#000" stroke-width=".8"/></g><text x="73.785" y="322.182" font-family="DejaVu Sans" font-size="10" font-weight="400" text-anchor="middle" id="text_1">0.0</text></g><g id="xtick_2"><use x="121.766" xlink:href="#m9ec6806f3d" y="307.584" stroke="#000" stroke-width=".8" id="line2d_2"/><text x="121.766" y="322.182" font-family="DejaVu Sans" font-size="10" font-weight="400" text-anchor="middle" id="text_2">0.1</text></g><g id="xtick_3"><use x="169.747" xlink:href="#m9ec6806f3d" y="307.584" stroke="#000" stroke-width=".8" id="line2d_3"/><text x="169.747" y="322.182" font-family="DejaVu Sans" font-size="10" font-weight="400" text-anchor="middle" id="text_3">0.2</text></g><g id="xtick_4"><use x="217.728" xlink:href="#m9ec6806f3d" y="307.584" stroke="#000" stroke-width=".8" id="line2d_4"/><text x="217.728" y="322.182" font-family="DejaVu Sans" font-size="10" font-weight="400" text-anchor="middle" id="text_4">0.3</text></g><g id="xtick_5"><use x="265.709" xlink:href="#m9ec6806f3d" y="307.584" stroke="#000" stroke-width=".8" id="line2d_5"/><text x="265.709" y="322.182" font-family="DejaVu Sans" font-size="10" font-weight="400" text-anchor="middle" id="text_5">0.4</text></g><g id="xtick_6"><use x="313.689" xlink:href="#m9ec6806f3d" y="307.584" stroke="#000" stroke-width=".8" id="line2d_6"/><text x="313.689" y="322.182" font-family="DejaVu Sans" font-size="10" font-weight="400" text-anchor="middle" id="text_6">0.5</text></g><g id="xtick_7"><use x="361.67" xlink:href="#m9ec6806f3d" y="307.584" stroke="#000" stroke-width=".8" id="line2d_7"/><text x="361.67" y="322.182" font-family="DejaVu Sans" font-size="10" font-weight="400" text-anchor="middle" id="text_7">0.6</text></g><g id="xtick_8"><use x="409.651" xlink:href="#m9ec6806f3d" y="307.584" stroke="#000" stroke-width=".8" id="line2d_8"/><text x="409.651" y="322.182" font-family="DejaVu Sans" font-size="10" font-weight="400" text-anchor="middle" id="text_8">0.7</text></g><text x="236.16" y="335.861" font-family="DejaVu Sans" font-size="10" font-weight="400" text-anchor="middle" id="text_9">Probability</text></g><g id="matplotlib.axis_2"><g id="ytick_1"><g id="line2d_9"><defs><path d="M0 0h-3.5" id="mffb67b8252" stroke="#000" stroke-width=".8"/></defs><use x="57.6" xlink:href="#mffb67b8252" y="287.951" stroke="#000" stroke-width=".8"/></g><text x="50.6" y="291.751" font-family="DejaVu Sans" font-size="10" font-weight="400" text-anchor="end" id="text_10">50</text></g><g id="ytick_2"><use x="57.6" xlink:href="#mffb67b8252" y="250.095" stroke="#000" stroke-width=".8" id="line2d_10"/><text x="50.6" y="253.894" font-family="DejaVu Sans" font-size="10" font-weight="400" text-anchor="end" id="text_11">100</text></g><g id="ytick_3"><use x="57.6" xlink:href="#mffb67b8252" y="212.238" stroke="#000" stroke-width=".8" id="line2d_11"/><text x="50.6" y="216.037" font-family="DejaVu Sans" font-size="10" font-weight="400" text-anchor="end" id="text_12">150</text></g><g id="ytick_4"><use x="57.6" xlink:href="#mffb67b8252" y="174.381" stroke="#000" stroke-width=".8" id="line2d_12"/><text x="50.6" y="178.18" font-family="DejaVu Sans" font-size="10" font-weight="400" text-anchor="end" id="text_13">200</text></g><g id="ytick_5"><use x="57.6" xlink:href="#mffb67b8252" y="136.524" stroke="#000" stroke-width=".8" id="line2d_13"/><text x="50.6" y="140.324" font-family="DejaVu Sans" font-size="10" font-weight="400" text-anchor="end" id="text_14">250</text></g><g id="ytick_6"><use x="57.6" xlink:href="#mffb67b8252" y="98.668" stroke="#000" stroke-width=".8" id="line2d_14"/><text x="50.6" y="102.467" font-family="DejaVu Sans" font-size="10" font-weight="400" text-anchor="end" id="text_15">300</text></g><g id="ytick_7"><use x="57.6" xlink:href="#mffb67b8252" y="60.811" stroke="#000" stroke-width=".8" id="line2d_15"/><text x="50.6" y="64.61" font-family="DejaVu Sans" font-size="10" font-weight="400" text-anchor="end" id="text_16">350</text></g><text transform="rotate(-90 25.433 174.528)" x="25.433" y="174.528" font-family="DejaVu Sans" font-size="10" font-weight="400" text-anchor="middle" id="text_17">Average Bits Consumed Per Call</text></g><path clip-path="url(#p42983efaa4)" d="M73.833 290.833l4.845-.445 4.846-.678 4.845-10.658 4.846 16.436 4.846-6.22 4.845 2.42 4.846 1.574 4.845-.207 4.846-1.792 4.846 1.324 4.845-4.872 4.846 5.382 4.845-.603 4.846.473 4.846-4.063 4.845-8.787 4.846 13.018 4.845-8.21 4.846 1.73 4.846-.552 4.845 1.864 4.846-3.818 4.845 2.553 4.846-2.062 4.845 3.755 4.846-6.688 4.846-2.32 4.845 8.413 4.846 3.079 4.845-4.047 4.846 1.42 4.846-5.042 4.845-7.433 4.846 5.218 4.845 1.222 4.846-4.513 4.846 3.326 4.845-1.85 4.846-2.4 4.845 3.55 4.846-2.529 4.846-8.583 4.845 10.777m9.691-8.493l4.846-2.61 4.845 1.601 4.846 1.389 4.846 1.095 4.845 2.706 4.846-26.255 4.845 2.814 4.846 22.225 4.846-9.433 4.845-10.698 4.846 13.69 4.845-50.252 4.846 21.16M398.487 211.46" fill="none" stroke="#1f77b4" stroke-linecap="square" stroke-width="1.5" id="line2d_16"/><path clip-path="url(#p42983efaa4)" d="M73.833 263.461l4.845.76 4.846-.487 4.845-2.22 4.846 1.454 4.846-9.407 4.845 4.334 4.846-10.052 4.845 1.107 4.846 3.084 4.846 5.16 4.845-7.572 4.846 4.517 4.845-1.263 4.846-.832 4.846 2.83 4.845-13.315 4.846 4.814 4.845-.868 4.846.008 4.846-7.181 4.845.13 4.846 5.601 4.845-2.044 4.846-8.95 4.845-3.311 4.846 8.9 4.846-8.349 4.845-.665 4.846 4.481 4.845-19.337 4.846 13.071 4.846.4 4.845 2.07 4.846-2.291 4.845-7.796 4.846-6.676 4.846-5.268 4.845.272 4.846-.988 4.845-3.208 4.846-6.467 4.846 7.75 4.845-4.263m9.691-24.12l4.846-1.363 4.845-9.29 4.846-7.87 4.846-1.195 4.845-14.767 4.846 15.723m9.691-21.585l4.846-7.748M374.259 69.504" fill="none" stroke="#ff7f0e" stroke-linecap="square" stroke-width="1.5" id="line2d_17"/><path clip-path="url(#p42983efaa4)" d="M238.583 53.568l4.845 26.778 4.846 23.005M272.501 166.97l4.847-15.664 4.845 28.105m19.382 26.156" fill="none" stroke="#2ca02c" stroke-linecap="square" stroke-width="1.5" id="line2d_18"/><path d="M57.6 307.584V41.472" fill="none" stroke="#000" stroke-linecap="square" stroke-width=".8" id="patch_3"/><path d="M414.72 307.584V41.472" fill="none" stroke="#000" stroke-linecap="square" stroke-width=".8" id="patch_4"/><path d="M57.6 307.584h357.12" fill="none" stroke="#000" stroke-linecap="square" stroke-width=".8" id="patch_5"/><path d="M57.6 41.472h357.12" fill="none" stroke="#000" stroke-linecap="square" stroke-width=".8" id="patch_6"/><text x="236.16" y="35.472" font-family="DejaVu Sans" font-size="12" font-weight="400" text-anchor="middle" id="text_18">Avg. Bits Consumed by 2014 Add. x+0.2 Algorithm</text><g id="legend_1"><path d="M64.6 93.506h116.548q2 0 2-2V48.472q0-2-2-2H64.6q-2 0-2 2v43.034q0 2 2 2z" fill="#fff" opacity=".8" stroke="#ccc" id="patch_7"/><path d="M66.6 54.57h20" fill="none" stroke="#1f77b4" stroke-linecap="square" stroke-width="1.5" id="line2d_19"/><text x="94.6" y="58.07" font-family="DejaVu Sans" font-size="10" font-weight="400" id="text_19">2014 Add. x+0.2</text><path d="M66.6 69.249h20" fill="none" stroke="#ff7f0e" stroke-linecap="square" stroke-width="1.5" id="line2d_21"/><text x="94.6" y="72.749" font-family="DejaVu Sans" font-size="10" font-weight="400" id="text_20">2016 Add. x+0.2</text><path d="M66.6 83.927h20" fill="none" stroke="#2ca02c" stroke-linecap="square" stroke-width="1.5" id="line2d_23"/><text x="94.6" y="87.427" font-family="DejaVu Sans" font-size="10" font-weight="400" id="text_21">2019 Add. x+0.2</text></g></g></g><defs><clipPath id="p42983efaa4"><path d="M57.6 41.472h357.12v266.112H57.6z"/></clipPath></defs></svg>
